X:1
T:Penny Wedding Reel
T:Penny Wedding Reel
T:Nathaniel Gow (1763-1831)
C:Nathaniel Gow (1763-1831)
L:1/8
M:4/4
K:Dmin
V:1 treble 
V:1
 A, | D A2 F ECGE | D A2 G AD d=B | cGAF ECGE | DAcE{E} D2 D :| f | (d/e/f/g/) af gcge | %7
 (d/e/f/g/) af adfa | (d/e/f/g/) af gcge | f>d e>^c d2 Df | (d/e/f/g/) af gcge | %11
 (d/e/f/g/) af gefd | ecd=B cCGE | DdcE{E} D2 D || %14

